X: 63
T:Jack a Lent
M:C|
L:1/8
Q:150
K:G
d4 d2 cB|AGAB c2 BA|G2G2G2g2|f4e4||
B3c d2 cB|AGAB ABcd|BcBA G2ga|fefg e4||

